packages/kaspersky-hexa-ui-icons/src/iconsSVGs/16x12/FlagEu.svg

<svg width="16" height="12" viewBox="0 0 16 12" fill="none" xmlns="http://www.w3.org/2000/svg">
<g clip-path="url(#clip0_41818_4376)">
<rect width="16" height="12" rx="2" fill="white"/>
<mask id="mask0_41818_4376" style="mask-type:luminance" maskUnits="userSpaceOnUse" x="0" y="0" width="16" height="12">
<rect width="16" height="12" rx="2" fill="white"/>
</mask>
<g mask="url(#mask0_41818_4376)">
<rect width="16" height="12" fill="#043CAE"/>
<path d="M8.38037 9.81104L8.53857 10.3501L7.99951 10.1919L7.46045 10.3501L7.61865 9.81104L7.46045 9.27197L7.99951 9.43018L8.53857 9.27197L8.38037 9.81104ZM6.47607 9.30029L6.6333 9.83936L6.09521 9.68213L5.55615 9.83936L5.71338 9.30029L5.55615 8.76123L6.09521 8.91943L6.6333 8.76123L6.47607 9.30029ZM10.2856 9.30029L10.4429 9.83936L9.90479 9.68213L9.36572 9.83936L9.52295 9.30029L9.36572 8.76123L9.90479 8.91943L10.4429 8.76123L10.2856 9.30029ZM5.08154 7.90576L5.23877 8.44482L4.70068 8.28662L4.16162 8.44482L4.31982 7.90576L4.16162 7.3667L4.70068 7.5249L5.23877 7.3667L5.08154 7.90576ZM11.6802 7.90576L11.8374 8.44482L11.2983 8.28662L10.7603 8.44482L10.9175 7.90576L10.7603 7.3667L11.2983 7.5249L11.8374 7.3667L11.6802 7.90576ZM4.5708 6.00049L4.729 6.53857L4.18994 6.38135L3.65186 6.53857L3.80908 6.00049L3.65186 5.46143L4.18994 5.61865L4.729 5.46143L4.5708 6.00049ZM12.1899 6.00049L12.3481 6.53857L11.8091 6.38135L11.27 6.53857L11.4282 6.00049L11.27 5.46143L11.8091 5.61865L12.3481 5.46143L12.1899 6.00049ZM5.08154 4.09424L5.23877 4.6333L4.70068 4.4751L4.16162 4.6333L4.31982 4.09424L4.16162 3.55518L4.70068 3.71338L5.23877 3.55518L5.08154 4.09424ZM11.6802 4.09424L11.8374 4.6333L11.2983 4.4751L10.7603 4.6333L10.9175 4.09424L10.7603 3.55518L11.2983 3.71338L11.8374 3.55518L11.6802 4.09424ZM6.47607 2.69971L6.6333 3.23877L6.09521 3.08057L5.55615 3.23877L5.71338 2.69971L5.55615 2.16064L6.09521 2.31787L6.6333 2.16064L6.47607 2.69971ZM10.2856 2.69971L10.4429 3.23877L9.90479 3.08057L9.36572 3.23877L9.52295 2.69971L9.36572 2.16064L9.90479 2.31787L10.4429 2.16064L10.2856 2.69971ZM8.38037 2.18896L8.53857 2.72803L7.99951 2.56982L7.46045 2.72803L7.61865 2.18896L7.46045 1.6499L7.99951 1.80811L8.53857 1.6499L8.38037 2.18896Z" fill="#FFD429"/>
</g>
</g>
<defs>
<clipPath id="clip0_41818_4376">
<rect width="16" height="12" fill="white"/>
</clipPath>
</defs>
</svg>

<svg xmlns="http://www.w3.org/2000/svg" width="16" height="12" fill="none" viewBox="0 0 16 12"><g clip-path="url(#a)"><rect width="16" height="12" fill="#fff" rx="2"/><mask id="b" width="16" height="12" x="0" y="0" maskUnits="userSpaceOnUse" style="mask-type:luminance"><rect width="16" height="12" fill="#fff" rx="2"/></mask><g mask="url(#b)"><path fill="#043cae" d="M0 0h16v12H0z"/><path fill="#ffd429" d="m8.3804 9.811.1582.5391-.539-.1582-.5392.1582.1582-.539-.1582-.5391.5391.1582.539-.1582zM6.476 9.3003l.1572.539-.538-.1572-.5392.1573.1573-.5391-.1573-.539.5391.1581.5381-.1582zm3.8095 0 .1573.539-.5381-.1572-.539.1573.1571-.5391-.1572-.539.539.1581.5382-.1582zm-5.204-1.3945.1572.539-.5381-.1582-.539.1582.1581-.539-.1582-.5391.539.1582.5382-.1582zm6.5986 0 .1572.539-.5391-.1582-.538.1582.1572-.539-.1572-.5391.538.1582.5391-.1582zM4.5708 6.0005l.1582.538-.539-.1571-.5381.1572.1572-.5381-.1572-.539.538.1571.5391-.1572zm7.6191 0 .1582.538-.539-.1571-.5391.1572.1582-.5381-.1582-.539.5391.1571.539-.1572zM5.0815 4.0942l.1573.5391-.5381-.1582-.539.1582.1581-.539-.1582-.5391.539.1582.5382-.1582zm6.5987 0 .1572.5391-.5391-.1582-.538.1582.1572-.539-.1572-.5391.538.1582.5391-.1582zM6.4761 2.6997l.1572.539-.538-.1581-.5392.1582.1573-.539-.1573-.5392.5391.1573.5381-.1573zm3.8095 0 .1573.539-.5381-.1581-.539.1582.1571-.539-.1572-.5392.539.1573.5382-.1573zM8.3804 2.189l.1582.539-.539-.1582-.5392.1582.1582-.539-.1582-.5391.5391.1582.539-.1582z"/></g></g><defs><clipPath id="a"><path fill="#fff" d="M0 0h16v12H0z"/></clipPath></defs></svg>
